COLOR/action 16/16/dialog-xml-editor.svg

<svg viewBox="0 0 16 16" xmlns="http://www.w3.org/2000/svg"><g fill="#1a7fd4"><path d="m4.5390625 2c-.1117806.0013522-.2165227.0548068-.2832031.1445312l-3.7714844 5.0683594c-.0006535.0006475-.001305.0013-.001953.00195l-.4121095.56055c-.09349073.126531-.09349073.2992503 0 .4257813l.41210938.5566406 3.74804692 5.0957035c.1388594.190354.4205091.197128.5683593.01367l.9101563-1.121094c.1022974-.126669.1063109-.306391.00977-.4375l-3.181645-4.3203108 3.203125-4.2949218c.0975542-.1315034.0935339-.3124132-.0097656-.4394532l-.9101563-1.1210937c-.0686401-.0847817-.172169-.1336703-.28125-.1328125zm6.8945315 0c-.09943.00702-.191432.055148-.253906.1328125l-.910157 1.1210937c-.10331.1270321-.107344.307942-.0098.4394532l3.203125 4.2949218-3.181641 4.3203128c-.09653.131116-.09251.310838.0098.4375l.910156 1.121094c.14785.183458.4295.176684.568359-.01367l3.748047-5.0957035.41211-.5566406c.09349-.126531.09349-.2992503 0-.4257813l-.41211-.5605468c-.000664-.0006526-.0013-.0013-.002-.00195l-3.771436-5.0683646c-.072286-.0977497-.189213-.1521686-.310547-.1445312z"/><path d="m4.5390625 2.0007097c-.1117806.00135-.2165227.054801-.2832031.144515l-3.7714844 5.0677907c-.0006535.0006474-.001305.0013-.001953.00195l-.4121095.5604868c-.09349073.1265168-.09349073.2992168 0 .4257336l.41210938.5565781 3.74804692 5.0951321c.1388594.190332.4205091.197105.5683593.01367l.9101563-1.120968c.1022974-.126655.1063109-.306357.00977-.437451l-3.181645-4.319828 3.203125-4.2944399c.0975542-.1314886.0935339-.3123781-.0097656-.4394039l-.9101563-1.1209679c-.0686401-.0847722-.172169-.1336553-.28125-.1327976zm6.8945315 0c-.09943.00702-.191432.055142-.253906.1327976l-.910157 1.1209679c-.10331.1270179-.107344.3079075-.0098.4394039l3.203125 4.2944399-3.181641 4.319828c-.09653.131101-.09251.310803.0098.437451l.910156 1.120968c.14785.183437.4295.176664.568359-.01367l3.748047-5.0951321.41211-.5565781c.09349-.1265168.09349-.2992168 0-.4257336l-.41211-.5604839c-.000664-.0006525-.0013-.0013-.002-.00195l-3.771436-5.0677936c-.07229-.097739-.189213-.1521515-.310547-.144515z"/><path d="m4.5390625 2.0007097c-.1117806.00135-.2165227.054801-.2832031.144515l-3.7714844 5.0677907c-.0006535.0006474-.001305.0013-.001953.00195l-.4121095.5604868c-.09349073.1265168-.09349073.2992168 0 .4257336l.41210938.5565781 3.74804692 5.0951321c.1388594.190332.4205091.197105.5683593.01367l.9101563-1.120968c.1022974-.126655.1063109-.306357.00977-.437451l-3.181645-4.319828 3.203125-4.2944399c.0975542-.1314886.0935339-.3123781-.0097656-.4394039l-.9101563-1.1209679c-.0686401-.0847722-.172169-.1336553-.28125-.1327976zm6.8945315 0c-.09943.00702-.191432.055142-.253906.1327976l-.910157 1.1209679c-.10331.1270179-.107344.3079075-.0098.4394039l3.203125 4.2944399-3.181641 4.319828c-.09653.131101-.09251.310803.0098.437451l.910156 1.120968c.14785.183437.4295.176664.568359-.01367l3.748047-5.0951321.41211-.5565781c.09349-.1265168.09349-.2992168 0-.4257336l-.41211-.5604839c-.000664-.0006525-.0013-.0013-.002-.00195l-3.771436-5.0677936c-.07229-.097739-.189213-.1521515-.310547-.144515z"/><path d="m4.5390625 2.0007097c-.1117806.00135-.2165227.054801-.2832031.144515l-3.7714844 5.0677907c-.0006535.0006474-.001305.0013-.001953.00195l-.4121095.5604868c-.09349073.1265168-.09349073.2992168 0 .4257336l.41210938.5565781 3.74804692 5.0951321c.1388594.190332.4205091.197105.5683593.01367l.9101563-1.120968c.1022974-.126655.1063109-.306357.00977-.437451l-3.181645-4.319828 3.203125-4.2944399c.0975542-.1314886.0935339-.3123781-.0097656-.4394039l-.9101563-1.1209679c-.0686401-.0847722-.172169-.1336553-.28125-.1327976zm6.8945315 0c-.09943.00702-.191432.055142-.253906.1327976l-.910157 1.1209679c-.10331.1270179-.107344.3079075-.0098.4394039l3.203125 4.2944399-3.181641 4.319828c-.09653.131101-.09251.310803.0098.437451l.910156 1.120968c.14785.183437.4295.176664.568359-.01367l3.748047-5.0951321.41211-.5565781c.09349-.1265168.09349-.2992168 0-.4257336l-.41211-.5604839c-.000664-.0006525-.0013-.0013-.002-.00195l-3.771436-5.0677936c-.07229-.097739-.189213-.1521515-.310547-.144515z"/></g><path d="m4.5390625 2c-.1117806.00135-.2165227.0548172-.2832031.1445312l-3.7714844 5.0683594s-.00195312.0019532-.00195312.0019532l-.41210938.5605468c-.09349073.1265168-.09349073.2992645 0 .4257813l.02734375.0371093.38476563-.5234374s.00195312-.0019532.00195312-.0019532l3.7714844-5.0683594c.0666804-.089714.1714225-.1431812.2832031-.1445312.109081-.0008577.21261.0480405.28125.1328125l.8925781 1.0976563.0273438-.0371094c.0975542-.1314886.0935339-.3124273-.0097656-.4394532l-.9101563-1.1210937c-.0686401-.0847722-.172169-.1336702-.28125-.1328125zm6.8945315 0c-.09943.00702-.191433.0551569-.253906.1328125l-.910157 1.1210937c-.10331.1270179-.107309.3079568-.009765.4394532l.027343.0371094.892579-1.0976563c.062473-.0776556.154476-.1257925.253906-.1328125.121334-.0076365.238257.0467923.310547.1445312l3.771484 5.0683594s.001953.0019532.001953.0019532l.384766.5234374.027344-.0371093c.09349-.1265168.09349-.2992645 0-.4257813l-.41211-.5605468s-.001953-.0019532-.001953-.0019532l-3.771484-5.0683594c-.07229-.0977389-.189213-.1521677-.310547-.1445312zm-8.7109378 6.2402344-.1855468.2480468 3.1523437 4.2812498.0195313-.023437c.1022974-.126655.1063065-.306406.0097656-.4375zm10.5546878 0-2.996094 4.0683596c-.09653.131101-.092544.310852.009766.4375l.019531.023437 3.152344-4.2812498z" fill="#eee" opacity=".3"/><path d="m5.7128906 3.2304688-3.1757812 4.2578124.1855468.2519532 3.0175782-4.046875c.0975542-.1314886.0935339-.3124273-.0097656-.4394532zm4.5742184 0-.017578.0234374c-.10331.1270179-.107309.3079568-.009765.4394532l3.017578 4.046875.185547-.2519532zm-10.18945275 4.5078124-.02734375.0371094c-.09349073.1265168-.09349073.2992645 0 .4257813l.41210938.5566406 3.74804692 5.0957035c.1388594.190332.4205091.197107.5683593.013672l.9101563-1.121094c.1022974-.126655.1063065-.306406.0097656-.4375l-.0292969-.039063-.890625 1.097657c-.1478502.183435-.4294999.17666-.5683593-.013672l-3.74804692-5.0957035zm15.80468775 0-.384766.5195313-3.748047 5.0957035c-.138859.190334-.420509.197108-.568359.013672l-.890625-1.097657-.029297.039063c-.09653.131101-.092544.310852.009766.4375l.910156 1.121094c.14785.183436.4295.176662.568359-.013672l3.748047-5.0957035.41211-.5566406c.09349-.1265168.09349-.2992645 0-.4257813z" opacity=".2"/></svg>

<?xml version="1.0" encoding="UTF-8" standalone="no"?>
<svg
   xmlns:dc="http://purl.org/dc/elements/1.1/"
   xmlns:cc="http://creativecommons.org/ns#"
   xmlns:rdf="http://www.w3.org/1999/02/22-rdf-syntax-ns#"
   xmlns:svg="http://www.w3.org/2000/svg"
   xmlns="http://www.w3.org/2000/svg"
   xmlns:sodipodi="http://sodipodi.sourceforge.net/DTD/sodipodi-0.dtd"
   xmlns:inkscape="http://www.inkscape.org/namespaces/inkscape"
   viewBox="0 0 16 16"
   version="1.1"
   id="svg4"
   sodipodi:docname="dialog-xml-editor.svg"
   inkscape:version="0.92.4 (5da689c313, 2019-01-14)">
  <metadata
     id="metadata10">
    <rdf:RDF>
      <cc:Work
         rdf:about="">
        <dc:format>image/svg+xml</dc:format>
        <dc:type
           rdf:resource="http://purl.org/dc/dcmitype/StillImage" />
      </cc:Work>
    </rdf:RDF>
  </metadata>
  <defs
     id="defs8" />
  <sodipodi:namedview
     pagecolor="#ffffff"
     bordercolor="#666666"
     borderopacity="1"
     objecttolerance="10"
     gridtolerance="10"
     guidetolerance="10"
     inkscape:pageopacity="0"
     inkscape:pageshadow="2"
     inkscape:window-width="1920"
     inkscape:window-height="1016"
     id="namedview6"
     showgrid="false"
     inkscape:zoom="69.908821"
     inkscape:cx="7.9999995"
     inkscape:cy="8.000036"
     inkscape:window-x="0"
     inkscape:window-y="27"
     inkscape:window-maximized="1"
     inkscape:current-layer="svg4" />
  <path
     style="color:#000000;font-style:normal;font-variant:normal;font-weight:normal;font-stretch:normal;font-size:medium;line-height:normal;font-family:sans-serif;font-variant-ligatures:normal;font-variant-position:normal;font-variant-caps:normal;font-variant-numeric:normal;font-variant-alternates:normal;font-feature-settings:normal;text-indent:0;text-align:start;text-decoration:none;text-decoration-line:none;text-decoration-style:solid;text-decoration-color:#000000;letter-spacing:normal;word-spacing:normal;text-transform:none;writing-mode:lr-tb;direction:ltr;text-orientation:mixed;dominant-baseline:auto;baseline-shift:baseline;text-anchor:start;white-space:normal;shape-padding:0;clip-rule:nonzero;display:inline;overflow:visible;visibility:visible;opacity:1;isolation:auto;mix-blend-mode:normal;color-interpolation:sRGB;color-interpolation-filters:linearRGB;solid-color:#000000;solid-opacity:1;vector-effect:none;fill:#1a7fd4;fill-opacity:1;fill-rule:nonzero;stroke:none;stroke-width:0.71641964;stroke-linecap:round;stroke-linejoin:round;stroke-miterlimit:4;stroke-dasharray:none;stroke-dashoffset:0;stroke-opacity:1;color-rendering:auto;image-rendering:auto;shape-rendering:auto;text-rendering:auto;enable-background:accumulate"
     d="M 4.5390625,2 C 4.4272819,2.0013522 4.3225398,2.0548068 4.2558594,2.1445312 L 0.484375,7.2128906 c -6.535e-4,6.475e-4 -0.001305,0.0013 -0.001953,0.00195 l -0.4121095,0.56055 c -0.09349073,0.126531 -0.09349073,0.2992503 0,0.4257813 L 0.48242188,8.7578125 4.2304688,13.853516 c 0.1388594,0.190354 0.4205091,0.197128 0.5683593,0.01367 l 0.9101563,-1.121094 c 0.1022974,-0.126669 0.1063109,-0.306391 0.00977,-0.4375 L 2.5371094,7.9882812 5.7402344,3.6933594 C 5.8377886,3.561856 5.8337683,3.3809462 5.7304688,3.2539062 L 4.8203125,2.1328125 C 4.7516724,2.0480308 4.6481435,1.9991422 4.5390625,2 Z m 6.8945315,0 c -0.09943,0.00702 -0.191432,0.055148 -0.253906,0.1328125 l -0.910157,1.1210937 c -0.10331,0.1270321 -0.107344,0.307942 -0.0098,0.4394532 l 3.203125,4.2949218 -3.181641,4.3203128 c -0.09653,0.131116 -0.09251,0.310838 0.0098,0.4375 l 0.910156,1.121094 c 0.14785,0.183458 0.4295,0.176684 0.568359,-0.01367 l 3.748047,-5.0957035 0.41211,-0.5566406 c 0.09349,-0.126531 0.09349,-0.2992503 0,-0.4257813 l -0.41211,-0.5605468 c -6.64e-4,-6.526e-4 -0.0013,-0.0013 -0.002,-0.00195 L 11.744141,2.1445312 C 11.671855,2.0467815 11.554928,1.9923626 11.433594,2 Z"
     id="path2"
     inkscape:connector-curvature="0"
     sodipodi:nodetypes="cccccccccccccccccccccccccccccccc" />
  <path
     sodipodi:nodetypes="cccccccccccccccccccccccccccccccc"
     inkscape:connector-curvature="0"
     id="path824"
     d="m 4.5390625,2.0007097 c -0.1117806,0.00135 -0.2165227,0.054801 -0.2832031,0.144515 L 0.484375,7.2130154 c -6.535e-4,6.474e-4 -0.001305,0.0013 -0.001953,0.00195 L 0.0703125,7.7754522 c -0.09349073,0.1265168 -0.09349073,0.2992168 0,0.4257336 L 0.48242188,8.7577639 4.2304688,13.852896 c 0.1388594,0.190332 0.4205091,0.197105 0.5683593,0.01367 l 0.9101563,-1.120968 c 0.1022974,-0.126655 0.1063109,-0.306357 0.00977,-0.437451 L 2.5371094,7.988319 5.7402344,3.6938791 C 5.8377886,3.5623905 5.8337683,3.381501 5.7304688,3.2544752 L 4.8203125,2.1335073 C 4.7516724,2.0487351 4.6481435,1.999852 4.5390625,2.0007097 Z m 6.8945315,0 c -0.09943,0.00702 -0.191432,0.055142 -0.253906,0.1327976 l -0.910157,1.1209679 c -0.10331,0.1270179 -0.107344,0.3079075 -0.0098,0.4394039 l 3.203125,4.2944399 -3.181641,4.319828 c -0.09653,0.131101 -0.09251,0.310803 0.0098,0.437451 l 0.910156,1.120968 c 0.14785,0.183437 0.4295,0.176664 0.568359,-0.01367 l 3.748047,-5.0951321 0.41211,-0.5565781 c 0.09349,-0.1265168 0.09349,-0.2992168 0,-0.4257336 l -0.41211,-0.5604839 c -6.64e-4,-6.525e-4 -0.0013,-0.0013 -0.002,-0.00195 L 11.744141,2.1452247 c -0.07229,-0.097739 -0.189213,-0.1521515 -0.310547,-0.144515 z"
     style="color:#000000;font-style:normal;font-variant:normal;font-weight:normal;font-stretch:normal;font-size:medium;line-height:normal;font-family:sans-serif;font-variant-ligatures:normal;font-variant-position:normal;font-variant-caps:normal;font-variant-numeric:normal;font-variant-alternates:normal;font-feature-settings:normal;text-indent:0;text-align:start;text-decoration:none;text-decoration-line:none;text-decoration-style:solid;text-decoration-color:#000000;letter-spacing:normal;word-spacing:normal;text-transform:none;writing-mode:lr-tb;direction:ltr;text-orientation:mixed;dominant-baseline:auto;baseline-shift:baseline;text-anchor:start;white-space:normal;shape-padding:0;clip-rule:nonzero;display:inline;overflow:visible;visibility:visible;opacity:1;isolation:auto;mix-blend-mode:normal;color-interpolation:sRGB;color-interpolation-filters:linearRGB;solid-color:#000000;solid-opacity:1;vector-effect:none;fill:#1a7fd4;fill-opacity:1;fill-rule:nonzero;stroke:none;stroke-width:0.71637946;stroke-linecap:round;stroke-linejoin:round;stroke-miterlimit:4;stroke-dasharray:none;stroke-dashoffset:0;stroke-opacity:1;color-rendering:auto;image-rendering:auto;shape-rendering:auto;text-rendering:auto;enable-background:accumulate" />
  <path
     style="color:#000000;font-style:normal;font-variant:normal;font-weight:normal;font-stretch:normal;font-size:medium;line-height:normal;font-family:sans-serif;font-variant-ligatures:normal;font-variant-position:normal;font-variant-caps:normal;font-variant-numeric:normal;font-variant-alternates:normal;font-feature-settings:normal;text-indent:0;text-align:start;text-decoration:none;text-decoration-line:none;text-decoration-style:solid;text-decoration-color:#000000;letter-spacing:normal;word-spacing:normal;text-transform:none;writing-mode:lr-tb;direction:ltr;text-orientation:mixed;dominant-baseline:auto;baseline-shift:baseline;text-anchor:start;white-space:normal;shape-padding:0;clip-rule:nonzero;display:inline;overflow:visible;visibility:visible;opacity:1;isolation:auto;mix-blend-mode:normal;color-interpolation:sRGB;color-interpolation-filters:linearRGB;solid-color:#000000;solid-opacity:1;vector-effect:none;fill:#1a7fd4;fill-opacity:1;fill-rule:nonzero;stroke:none;stroke-width:0.71637946;stroke-linecap:round;stroke-linejoin:round;stroke-miterlimit:4;stroke-dasharray:none;stroke-dashoffset:0;stroke-opacity:1;color-rendering:auto;image-rendering:auto;shape-rendering:auto;text-rendering:auto;enable-background:accumulate"
     d="m 4.5390625,2.0007097 c -0.1117806,0.00135 -0.2165227,0.054801 -0.2832031,0.144515 L 0.484375,7.2130154 c -6.535e-4,6.474e-4 -0.001305,0.0013 -0.001953,0.00195 L 0.0703125,7.7754522 c -0.09349073,0.1265168 -0.09349073,0.2992168 0,0.4257336 L 0.48242188,8.7577639 4.2304688,13.852896 c 0.1388594,0.190332 0.4205091,0.197105 0.5683593,0.01367 l 0.9101563,-1.120968 c 0.1022974,-0.126655 0.1063109,-0.306357 0.00977,-0.437451 L 2.5371094,7.988319 5.7402344,3.6938791 C 5.8377886,3.5623905 5.8337683,3.381501 5.7304688,3.2544752 L 4.8203125,2.1335073 C 4.7516724,2.0487351 4.6481435,1.999852 4.5390625,2.0007097 Z m 6.8945315,0 c -0.09943,0.00702 -0.191432,0.055142 -0.253906,0.1327976 l -0.910157,1.1209679 c -0.10331,0.1270179 -0.107344,0.3079075 -0.0098,0.4394039 l 3.203125,4.2944399 -3.181641,4.319828 c -0.09653,0.131101 -0.09251,0.310803 0.0098,0.437451 l 0.910156,1.120968 c 0.14785,0.183437 0.4295,0.176664 0.568359,-0.01367 l 3.748047,-5.0951321 0.41211,-0.5565781 c 0.09349,-0.1265168 0.09349,-0.2992168 0,-0.4257336 l -0.41211,-0.5604839 c -6.64e-4,-6.525e-4 -0.0013,-0.0013 -0.002,-0.00195 L 11.744141,2.1452247 c -0.07229,-0.097739 -0.189213,-0.1521515 -0.310547,-0.144515 z"
     id="path830"
     inkscape:connector-curvature="0"
     sodipodi:nodetypes="cccccccccccccccccccccccccccccccc" />
  <path
     sodipodi:nodetypes="cccccccccccccccccccccccccccccccc"
     inkscape:connector-curvature="0"
     id="path832"
     d="m 4.5390625,2.0007097 c -0.1117806,0.00135 -0.2165227,0.054801 -0.2832031,0.144515 L 0.484375,7.2130154 c -6.535e-4,6.474e-4 -0.001305,0.0013 -0.001953,0.00195 L 0.0703125,7.7754522 c -0.09349073,0.1265168 -0.09349073,0.2992168 0,0.4257336 L 0.48242188,8.7577639 4.2304688,13.852896 c 0.1388594,0.190332 0.4205091,0.197105 0.5683593,0.01367 l 0.9101563,-1.120968 c 0.1022974,-0.126655 0.1063109,-0.306357 0.00977,-0.437451 L 2.5371094,7.988319 5.7402344,3.6938791 C 5.8377886,3.5623905 5.8337683,3.381501 5.7304688,3.2544752 L 4.8203125,2.1335073 C 4.7516724,2.0487351 4.6481435,1.999852 4.5390625,2.0007097 Z m 6.8945315,0 c -0.09943,0.00702 -0.191432,0.055142 -0.253906,0.1327976 l -0.910157,1.1209679 c -0.10331,0.1270179 -0.107344,0.3079075 -0.0098,0.4394039 l 3.203125,4.2944399 -3.181641,4.319828 c -0.09653,0.131101 -0.09251,0.310803 0.0098,0.437451 l 0.910156,1.120968 c 0.14785,0.183437 0.4295,0.176664 0.568359,-0.01367 l 3.748047,-5.0951321 0.41211,-0.5565781 c 0.09349,-0.1265168 0.09349,-0.2992168 0,-0.4257336 l -0.41211,-0.5604839 c -6.64e-4,-6.525e-4 -0.0013,-0.0013 -0.002,-0.00195 L 11.744141,2.1452247 c -0.07229,-0.097739 -0.189213,-0.1521515 -0.310547,-0.144515 z"
     style="color:#000000;font-style:normal;font-variant:normal;font-weight:normal;font-stretch:normal;font-size:medium;line-height:normal;font-family:sans-serif;font-variant-ligatures:normal;font-variant-position:normal;font-variant-caps:normal;font-variant-numeric:normal;font-variant-alternates:normal;font-feature-settings:normal;text-indent:0;text-align:start;text-decoration:none;text-decoration-line:none;text-decoration-style:solid;text-decoration-color:#000000;letter-spacing:normal;word-spacing:normal;text-transform:none;writing-mode:lr-tb;direction:ltr;text-orientation:mixed;dominant-baseline:auto;baseline-shift:baseline;text-anchor:start;white-space:normal;shape-padding:0;clip-rule:nonzero;display:inline;overflow:visible;visibility:visible;opacity:1;isolation:auto;mix-blend-mode:normal;color-interpolation:sRGB;color-interpolation-filters:linearRGB;solid-color:#000000;solid-opacity:1;vector-effect:none;fill:#1a7fd4;fill-opacity:1;fill-rule:nonzero;stroke:none;stroke-width:0.71637946;stroke-linecap:round;stroke-linejoin:round;stroke-miterlimit:4;stroke-dasharray:none;stroke-dashoffset:0;stroke-opacity:1;color-rendering:auto;image-rendering:auto;shape-rendering:auto;text-rendering:auto;enable-background:accumulate" />
  <path
     style="color:#000000;font-style:normal;font-variant:normal;font-weight:normal;font-stretch:normal;font-size:medium;line-height:normal;font-family:sans-serif;font-variant-ligatures:normal;font-variant-position:normal;font-variant-caps:normal;font-variant-numeric:normal;font-variant-alternates:normal;font-feature-settings:normal;text-indent:0;text-align:start;text-decoration:none;text-decoration-line:none;text-decoration-style:solid;text-decoration-color:#000000;letter-spacing:normal;word-spacing:normal;text-transform:none;writing-mode:lr-tb;direction:ltr;text-orientation:mixed;dominant-baseline:auto;baseline-shift:baseline;text-anchor:start;white-space:normal;shape-padding:0;clip-rule:nonzero;display:inline;overflow:visible;visibility:visible;opacity:0.3;isolation:auto;mix-blend-mode:normal;color-interpolation:sRGB;color-interpolation-filters:linearRGB;solid-color:#000000;solid-opacity:1;vector-effect:none;fill:#eeeeee;fill-opacity:1;fill-rule:nonzero;stroke:none;stroke-width:0.71637946;stroke-linecap:round;stroke-linejoin:round;stroke-miterlimit:4;stroke-dasharray:none;stroke-dashoffset:0;stroke-opacity:1;color-rendering:auto;image-rendering:auto;shape-rendering:auto;text-rendering:auto;enable-background:accumulate"
     d="M 4.5390625 2 C 4.4272819 2.00135 4.3225398 2.0548172 4.2558594 2.1445312 L 0.484375 7.2128906 C 0.484375 7.2128906 0.48242188 7.2148438 0.48242188 7.2148438 L 0.0703125 7.7753906 C -0.02317823 7.9019074 -0.02317823 8.0746551 0.0703125 8.2011719 L 0.09765625 8.2382812 L 0.48242188 7.7148438 C 0.48242188 7.7148438 0.484375 7.7128906 0.484375 7.7128906 L 4.2558594 2.6445312 C 4.3225398 2.5548172 4.4272819 2.50135 4.5390625 2.5 C 4.6481435 2.4991423 4.7516725 2.5480405 4.8203125 2.6328125 L 5.7128906 3.7304688 L 5.7402344 3.6933594 C 5.8377886 3.5618708 5.8337683 3.3809321 5.7304688 3.2539062 L 4.8203125 2.1328125 C 4.7516724 2.0480403 4.6481435 1.9991423 4.5390625 2 z M 11.433594 2 C 11.334164 2.00702 11.242161 2.0551569 11.179688 2.1328125 L 10.269531 3.2539062 C 10.166221 3.3809241 10.162222 3.561863 10.259766 3.6933594 L 10.287109 3.7304688 L 11.179688 2.6328125 C 11.242161 2.5551569 11.334164 2.50702 11.433594 2.5 C 11.554928 2.4923635 11.671851 2.5467923 11.744141 2.6445312 L 15.515625 7.7128906 C 15.515625 7.7128906 15.517578 7.7148438 15.517578 7.7148438 L 15.902344 8.2382812 L 15.929688 8.2011719 C 16.023178 8.0746551 16.023178 7.9019074 15.929688 7.7753906 L 15.517578 7.2148438 C 15.517578 7.2148438 15.515625 7.2128906 15.515625 7.2128906 L 11.744141 2.1445312 C 11.671851 2.0467923 11.554928 1.9923635 11.433594 2 z M 2.7226562 8.2402344 L 2.5371094 8.4882812 L 5.6894531 12.769531 L 5.7089844 12.746094 C 5.8112818 12.619439 5.8152909 12.439688 5.71875 12.308594 L 2.7226562 8.2402344 z M 13.277344 8.2402344 L 10.28125 12.308594 C 10.18472 12.439695 10.188706 12.619446 10.291016 12.746094 L 10.310547 12.769531 L 13.462891 8.4882812 L 13.277344 8.2402344 z "
     id="path834" />
  <path
     style="color:#000000;font-style:normal;font-variant:normal;font-weight:normal;font-stretch:normal;font-size:medium;line-height:normal;font-family:sans-serif;font-variant-ligatures:normal;font-variant-position:normal;font-variant-caps:normal;font-variant-numeric:normal;font-variant-alternates:normal;font-feature-settings:normal;text-indent:0;text-align:start;text-decoration:none;text-decoration-line:none;text-decoration-style:solid;text-decoration-color:#000000;letter-spacing:normal;word-spacing:normal;text-transform:none;writing-mode:lr-tb;direction:ltr;text-orientation:mixed;dominant-baseline:auto;baseline-shift:baseline;text-anchor:start;white-space:normal;shape-padding:0;clip-rule:nonzero;display:inline;overflow:visible;visibility:visible;opacity:0.2;isolation:auto;mix-blend-mode:normal;color-interpolation:sRGB;color-interpolation-filters:linearRGB;solid-color:#000000;solid-opacity:1;vector-effect:none;fill:#000000;fill-opacity:1;fill-rule:nonzero;stroke:none;stroke-width:0.71637946;stroke-linecap:round;stroke-linejoin:round;stroke-miterlimit:4;stroke-dasharray:none;stroke-dashoffset:0;stroke-opacity:1;color-rendering:auto;image-rendering:auto;shape-rendering:auto;text-rendering:auto;enable-background:accumulate"
     d="M 5.7128906 3.2304688 L 2.5371094 7.4882812 L 2.7226562 7.7402344 L 5.7402344 3.6933594 C 5.8377886 3.5618708 5.8337683 3.3809321 5.7304688 3.2539062 L 5.7128906 3.2304688 z M 10.287109 3.2304688 L 10.269531 3.2539062 C 10.166221 3.3809241 10.162222 3.561863 10.259766 3.6933594 L 13.277344 7.7402344 L 13.462891 7.4882812 L 10.287109 3.2304688 z M 0.09765625 7.7382812 L 0.0703125 7.7753906 C -0.02317823 7.9019074 -0.02317823 8.0746551 0.0703125 8.2011719 L 0.48242188 8.7578125 L 4.2304688 13.853516 C 4.3693282 14.043848 4.6509779 14.050623 4.7988281 13.867188 L 5.7089844 12.746094 C 5.8112818 12.619439 5.8152909 12.439688 5.71875 12.308594 L 5.6894531 12.269531 L 4.7988281 13.367188 C 4.6509779 13.550623 4.3693282 13.543848 4.2304688 13.353516 L 0.48242188 8.2578125 L 0.09765625 7.7382812 z M 15.902344 7.7382812 L 15.517578 8.2578125 L 11.769531 13.353516 C 11.630672 13.54385 11.349022 13.550624 11.201172 13.367188 L 10.310547 12.269531 L 10.28125 12.308594 C 10.18472 12.439695 10.188706 12.619446 10.291016 12.746094 L 11.201172 13.867188 C 11.349022 14.050624 11.630672 14.04385 11.769531 13.853516 L 15.517578 8.7578125 L 15.929688 8.2011719 C 16.023178 8.0746551 16.023178 7.9019074 15.929688 7.7753906 L 15.902344 7.7382812 z "
     id="path839" />
</svg>
